resources/svg/home.svg

<svg viewBox="0 0 24 24"><path fill="none" stroke="currentColor" stroke-width="2" d="M1 11l11-9l11 9m-8 12v-8h0h-6v8m-5 0V9m16 14V9"/></svg>

<svg xmlns="http://www.w3.org/2000/svg" viewBox="0 0 24 24" fill="currentColor"><path fill="none" stroke="currentColor" stroke-width="2" d="M1,11 L12,2 L23,11 M15,23 L15,15 L15,15 L9,15 L9,23 M4,23 L4,9 M20,23 L20,9"/></svg>
